v/0.4.11/design-resources/icons/wf_icons/comment-private-note.svg

<?xml version="1.0" encoding="utf-8"?>
<!-- Generated by IcoMoon.io -->
<!DOCTYPE svg PUBLIC "-//W3C//DTD SVG 1.1//EN" "http://www.w3.org/Graphics/SVG/1.1/DTD/svg11.dtd">
<svg version="1.1" xmlns="http://www.w3.org/2000/svg" xmlns:xlink="http://www.w3.org/1999/xlink" width="512" height="512" viewBox="0 0 512 512">
<g>
</g>
	<path d="M384 128c17.645 0 32 14.356 32 32v256h-320v-288h288zM384 96h-320v352h384v-288c0-35.346-28.654-64-64-64v0z" fill="#595959" />
	<path d="M160 192h192v32h-192v-32z" fill="#595959" />
	<path d="M160 256h192v32h-192v-32z" fill="#595959" />
	<path d="M160 320h192v32h-192v-32z" fill="#595959" />
</svg>

<svg xmlns="http://www.w3.org/2000/svg" width="512" height="512" viewBox="0 0 512 512"><path stroke="#449FDB" d="M0 0"/><path d="M384 128c17.645 0 32 14.356 32 32v256H96V128h288zm0-32H64v352h384V160c0-35.346-28.654-64-64-64zm-224 96h192v32H160v-32zm0 64h192v32H160v-32zm0 64h192v32H160v-32z" fill="#595959"/></svg>
